X: 1241
T: Barney Sell Your Fiddle and Buy Your Wife a Dress
B: australian traditional tunes wiki
M:6/8
L:1/8
R: Crooked Jig
Q: 3/8=100
K:C
V:1 
|:a2g a2g|a2ge3|dedA2B|\
d2cG3G3|
a2g a2g|a2ge3|dedA2B|c3A2c:|!
G2Ad3|dedA3|\
dedc2A G2A|
d3ded|A3ded|A2Bc3||
% abcbook-tune_id 6342d53a747dc62953eb9399


% abcbook-boost 0
% abcbook-tablature 
% abcbook-transpose 
% abcbook-lastupdated 1665324355588
% abcbook-soundfonts 
% abcbook-repeats 1
% NFF Book 2010

